BOEHME
CUT[LAET ONS TSAAM IN VRIENDSCHAP LEVEN]
REG[Europa, Mitteleuropa, flaemisch]
KEY[B0717  08  G 4/4]
MEL[1234  5_436_6_  6_5_
    4_42  3_312_2-7b  1__
    1234  5_436_6_  6_5_
    4_42  3_312_2-7b  1__
    5_53  4_423_31  2_-5_
    5_53  4_423_31  2_-5_
    1234  5_434_+1_  5__^656  5__
    4_42  3_312_2-7  1__ //] >>
FCT[Freimaurer - Lied]
